hospitalmanagementsystem/static/icons/login-icon.svg

<svg xmlns="http://www.w3.org/2000/svg" viewBox="0 0 32 32"><path d="M26 5v22a3 3 0 0 1-3 3H9a3 3 0 0 1-3-3v-7h2v7a1 1 0 0 0 1 1h14a1 1 0 0 0 1-1V5a1 1 0 0 0-1-1H9a1 1 0 0 0-1 1v9a1 1 0 0 0 1 1h7.59l-2.3-2.29 1.42-1.42 4 4a1 1 0 0 1 0 1.42l-4 4-1.42-1.42 2.3-2.29H9a3 3 0 0 1-3-3V5a3 3 0 0 1 3-3h14a3 3 0 0 1 3 3Z" data-name="43 Login, Basic, Essential"/></svg>

<svg xmlns="http://www.w3.org/2000/svg" viewBox="0 0 32 32" id="login"><path d="M26,5V27a3,3,0,0,1-3,3H9a3,3,0,0,1-3-3V20H8v7a1,1,0,0,0,1,1H23a1,1,0,0,0,1-1V5a1,1,0,0,0-1-1H9A1,1,0,0,0,8,5v9a1,1,0,0,0,1,1h7.59l-2.3-2.29,1.42-1.42,4,4a1,1,0,0,1,0,1.42l-4,4-1.42-1.42L16.59,17H9a3,3,0,0,1-3-3V5A3,3,0,0,1,9,2H23A3,3,0,0,1,26,5Z" data-name="43 Login, Basic, Essential"></path></svg>
